static/images/mobile/copyright/wikipedia-wordmark-szl.svg

<?xml version="1.0" encoding="UTF-8"?>
<svg width="120px" height="21px" viewBox="0 0 120 21" version="1.1" xmlns="http://www.w3.org/2000/svg" xmlns:xlink="http://www.w3.org/1999/xlink">
    <title>wikipedia-wordmark-szl</title>
    <g id="Page-1" stroke="none" stroke-width="1" fill="none" fill-rule="evenodd">
        <path d="M16.3730304,0.259976702 C16.4400518,0.260006463 16.5069473,0.260046558 16.5735242,0.260095746 L17.1589053,0.260750484 C17.2218344,0.260843073 17.2838662,0.260941036 17.3448079,0.261043132 L17.6958326,0.26169539 C17.7516421,0.26180906 17.8059756,0.261924384 17.8586402,0.26204012 L18.1530593,0.262729579 C18.1982772,0.262842009 18.2414404,0.262952372 18.2823562,0.263059429 L18.5847089,0.263900172 C18.610404,0.263976228 18.6332729,0.264045256 18.6531228,0.264106018 L18.7450515,0.264396186 L18.7988944,0.31782585 L18.7988944,0.817846852 C18.7988944,0.955957491 18.7261585,1.02450876 18.5825759,1.02450876 C17.877889,1.0597925 17.7333628,1.13439241 17.475481,1.5305784 C17.3347321,1.74732138 17.0570138,2.21205864 16.7689049,2.73324988 L14.2958878,7.66894107 C14.2958878,7.66894107 14.2718458,7.72254135 14.2271936,7.82189743 L17.2487729,14.423257 L17.4320296,14.4766867 L22.192917,2.41872054 C22.3582254,1.93281304 22.3327213,1.58804049 22.1201821,1.38541101 C21.9066984,1.18782207 21.7565035,1.07088167 21.2048453,1.04668711 L20.7580392,1.02249254 C20.7032486,1.02249254 20.6512979,1.0013223 20.6012322,0.962006133 C20.5521072,0.924706179 20.5266021,0.875308943 20.5266021,0.815830638 L20.5266021,0.313793422 L20.5946191,0.262379972 L25.9732885,0.262379972 L26.0280791,0.313793422 L26.0280791,0.815830638 C26.0280791,0.951925064 25.9553442,1.02047633 25.8117606,1.02047633 C25.1070737,1.05374386 24.584699,1.21705717 24.2465245,1.50840005 C23.9074054,1.80175915 23.6429124,2.20601 23.4530436,2.73123367 L23.4231129,2.80433412 C23.2131961,3.31697529 21.9305032,6.44875516 20.5730094,9.74745975 L20.3178464,10.3673243 C19.2530451,12.953255 18.1806587,15.5475238 17.5765588,16.9808241 C17.0031739,18.1461957 16.4392348,18.0393363 15.9433098,16.9475566 C15.3222749,15.582566 14.032633,12.5718919 13.0853769,10.3464566 C12.7345,11.1207727 12.3375231,11.9909688 11.940369,12.854015 L11.7049885,13.3645908 C11.0399916,14.8043323 10.3996561,16.1663355 9.99786449,16.9616701 C9.3290733,18.2026496 8.77835964,18.0403444 8.34005494,16.9939295 C6.81827126,13.1621153 3.69346663,6.43401017 2.22269215,2.66369051 C1.95064161,1.96910489 1.74565891,1.52352165 1.55201166,1.34710295 C1.35741982,1.17270047 0.953122191,1.06785735 0.338174184,1.03257361 C0.112409863,1.00636283 4.20996571e-13,0.947892637 4.20996571e-13,0.853130592 L4.20996571e-13,0.327906918 L0.0547860713,0.276493468 C0.085128429,0.276310176 0.119001187,0.276137993 0.15616252,0.275976413 L0.416658795,0.275130138 C0.466007119,0.275008953 0.518160365,0.274897362 0.572876707,0.27479486 L1.12799805,0.274104106 C1.19591653,0.274051593 1.26567262,0.274006653 1.33702451,0.273968783 L2.74146935,0.273941516 C2.82326497,0.273970298 2.90520543,0.274003119 2.9870489,0.274039474 L4.39752152,0.274966539 C4.46949533,0.275027131 4.53992118,0.275088228 4.60855725,0.275149326 L5.33080394,0.275850178 C5.38125258,0.275903197 5.42894413,0.275954196 5.47363677,0.276002669 L5.90198782,0.276493468 L5.95677843,0.327906918 L5.95677843,0.82792792 C5.95677843,0.96603856 5.87459655,1.03257361 5.71306658,1.03257361 L5.10284135,1.0597925 C4.57952199,1.08297896 4.31786181,1.25032469 4.31786181,1.5598135 C4.31786181,1.70397278 4.37264939,1.93785357 4.49450632,2.25339102 C5.66583576,5.29888184 9.71164582,14.4030949 9.71164582,14.4030949 L9.85995043,14.4444273 L12.4679569,8.89331324 C12.1490468,8.14141447 11.9456751,7.65986811 11.9456751,7.65986811 L10.1527853,3.89962952 C10.1527823,3.89962952 9.80610644,3.1475818 9.6880289,2.8975713 C8.90021557,1.23117066 8.9172183,1.14245726 8.1209036,1.0305574 C7.89797287,0.999306086 7.78272911,0.969062881 7.78272911,0.851114378 L7.78272911,0.323874491 L7.84979846,0.272461041 L8.17097435,0.272072001 C8.22815273,0.272011735 8.28701996,0.271953701 8.34737249,0.271897817 L9.76330445,0.271011854 C9.8344782,0.27098201 9.90571252,0.270953737 9.97680388,0.270926953 L12.4897746,0.270444827 L12.6125751,0.313793422 L12.6125751,0.839017096 C12.6125751,0.958981812 12.5322794,1.02047633 12.3688633,1.02047633 L12.032578,1.07188978 C11.1824193,1.14245726 11.321279,1.51344058 11.8861615,2.71409585 L13.606,6.469 L15.5087825,2.42073676 C15.8043811,1.73270383 15.7692949,1.52361938 15.6576468,1.36004559 L15.6306384,1.32290839 C15.5550687,1.22613013 15.3019099,1.07188978 14.7511962,1.04769522 L14.5348776,1.02249254 C14.4800901,1.02249254 14.4290778,1.00233041 14.3790152,0.96301424 C14.3298902,0.925714286 14.3053327,0.877325156 14.3053327,0.815830638 L14.3053327,0.315809636 L14.3724021,0.264396186 C14.6046485,0.262658071 14.8867936,0.261519306 15.194727,0.260824886 L15.7716508,0.260021344 C15.8376908,0.259977942 15.9041836,0.259948595 15.9709364,0.259932061 Z M27.0605419,5.57006259 C27.7236655,5.57006259 29.6147963,5.51764103 29.6147963,5.51764103 L29.6393609,5.57006259 L29.6393609,6.14669971 C29.6393609,6.22533205 29.5902288,6.2777536 29.4919928,6.2777536 L28.9762302,6.33118327 C28.2148655,6.40880749 27.944704,6.61950183 27.944704,7.1447255 L27.944704,15.8729147 C27.9447111,16.4495518 28.1903121,16.7902919 28.9762372,16.8689243 L29.4919998,16.9223539 C29.5656824,16.9223539 29.6393609,16.9737674 29.6393609,17.0786105 L29.6393609,17.6290368 L29.6148034,17.6824665 C29.6148034,17.6824665 29.005311,17.6650201 28.3408268,17.650066 L28.0065692,17.642889 C27.6728631,17.6361043 27.3485133,17.6307734 27.1028323,17.6293888 L26.9868684,17.6290368 C26.2991853,17.6290368 24.3834949,17.6824665 24.3834949,17.6824665 L24.3343699,17.6290368 L24.3343699,17.0786105 C24.3343699,16.9737674 24.4080524,16.9223539 24.5062914,16.9223539 L24.9974935,16.8689243 C25.8079782,16.7902919 26.0535792,16.3709195 26.0535792,15.8729147 L26.0535792,7.1447255 C26.0535792,6.56909648 25.7579136,6.4098156 24.9974935,6.33319948 L24.5062914,6.27876171 C24.4080514,6.27876171 24.3343699,6.25456714 24.3343699,6.1739186 L24.3343699,5.57006259 L24.3589274,5.51764103 C24.3589274,5.51764103 26.2991782,5.57006259 27.0605419,5.57006259 Z M35.1927846,15.8729147 C35.1927846,16.4495518 35.5120662,16.7378704 36.2243108,16.8689243 L36.4944724,16.9223539 C36.5681549,16.9475566 36.6418324,16.9737674 36.6418324,17.0786105 L36.6418324,17.6290368 L36.6172749,17.6824665 C36.6172749,17.6824665 35.0699861,17.6290368 34.333182,17.6290368 C33.6454979,17.6290368 31.6315675,17.6824665 31.6315675,17.6824665 L31.5824425,17.6290368 L31.5824425,17.0786105 C31.5824425,16.9737674 31.656125,16.9223539 31.754364,16.9223539 L32.2455671,16.8689243 C32.9823702,16.7902919 33.3016528,16.3709195 33.3016528,15.8729147 L33.3016528,7.1447255 C33.3016528,6.56909648 33.0314912,6.4098156 32.2455671,6.33319948 L31.754364,6.27876171 C31.656124,6.27876171 31.5824425,6.25456714 31.5824425,6.1739186 L31.5824425,5.57006259 L31.607,5.51764103 C31.607,5.51764103 33.6209313,5.57006259 34.382295,5.57006259 C35.0709237,5.57006259 36.6172679,5.51764103 36.6172679,5.51764103 L36.6418253,5.57006259 L36.6418253,6.14669971 C36.6418253,6.22533205 36.5927003,6.25154282 36.4944653,6.2777536 L36.2243038,6.33118327 C35.4629391,6.48743983 35.1927776,6.61950183 35.1927776,7.1447255 L35.1927776,11.102553 C36.0032622,11.102553 36.4699048,10.6579779 37.550551,9.42506322 C38.5329562,8.27078086 39.2943208,7.30299828 39.2943208,6.80398538 C39.2943208,6.59329105 39.0732793,6.35840215 38.5820762,6.27876171 C38.4838362,6.25355904 38.4347162,6.22634015 38.4347162,6.14770782 L38.4347162,5.54385181 L38.4592737,5.51864914 C38.4592737,5.51864914 40.4486445,5.57107069 41.1608892,5.57107069 C41.7994523,5.57107069 42.8800985,5.51864914 42.8800985,5.51864914 L42.953781,5.54385181 L42.953781,6.14770782 C42.953781,6.22634015 42.8800985,6.27876171 42.7573,6.27876171 C41.7994543,6.35739404 41.1363307,6.4098156 40.2521655,7.48445751 L38.1399941,10.0783165 C37.7224715,10.5511186 37.5751105,10.838429 37.5751105,11.0491234 C37.5751105,11.206388 37.6733505,11.3364338 37.7961521,11.4936985 L41.5047322,16.2640602 C41.7994543,16.6300029 42.3888974,16.7882757 42.8801005,16.8921107 L43.002901,16.9173134 C43.0765835,16.9435242 43.1748215,16.9959457 43.1748215,17.0745781 L43.1748215,17.6250044 L43.101139,17.6512152 C43.101139,17.6512152 41.7994523,17.6250044 41.1117681,17.6250044 C40.4977655,17.6250044 39.6136004,17.6512152 39.6136004,17.6512152 L39.5890429,17.6250044 L39.5890429,17.3104751 C39.5890429,16.9687268 39.5644854,16.6824245 39.2206413,16.263052 L36.4944663,12.6449565 C36.1260638,12.1197329 35.7331017,11.9906952 35.1927786,11.9906952 L35.1927786,15.8729147 L35.1927786,15.8729147 L35.1927846,15.8729147 Z M48.4335313,15.8729147 C48.4335313,16.4495518 48.6791334,16.7902919 49.4650575,16.8689243 L49.9808201,16.9223539 C50.0545026,16.9223539 50.1281841,16.9737674 50.1281841,17.0786105 L50.1281841,17.6290368 L50.1036236,17.6824665 C50.1036236,17.6824665 48.2370533,17.6290368 47.4756897,17.6290368 C46.7880055,17.6290368 44.8723152,17.6824665 44.8723152,17.6824665 L44.8232002,17.6290368 L44.8232002,17.0786105 C44.8232002,16.9737674 44.8968828,16.9223539 44.9951208,16.9223539 L45.4863239,16.8689243 C46.2968085,16.7902919 46.5424095,16.3709195 46.5424095,15.8729147 L46.5424095,7.1447255 C46.5424095,6.56909648 46.2476875,6.4098156 45.4863239,6.33319948 L44.9951208,6.27876171 C44.8968807,6.27876171 44.8232002,6.25456714 44.8232002,6.1739186 L44.8232002,5.57006259 L44.8477577,5.51764103 C44.8477577,5.51764103 46.7880086,5.57006259 47.5493732,5.57006259 C48.2124968,5.57006259 50.1036267,5.51764103 50.1036267,5.51764103 L50.1281841,5.57006259 L50.1281841,6.14669971 C50.1281841,6.22533205 50.0790591,6.2777536 49.9808231,6.2777536 L49.4650605,6.33118327 C48.7036959,6.40880749 48.4335343,6.61950183 48.4335343,7.1447255 L48.4335343,15.8729147 L48.4335313,15.8729147 Z M53.7404105,7.19613895 C53.7404105,6.38360482 53.4211289,6.35739404 52.2668022,6.27876171 C52.1194412,6.27876171 52.0948817,6.20113748 52.0948817,6.14770782 L52.0948817,5.54485992 L52.1439966,5.51864914 C52.5123982,5.51864914 53.961446,5.57107069 54.6736906,5.57107069 C55.3613737,5.57107069 56.3437799,5.51864914 57.2525046,5.51864914 C60.738155,5.51864914 61.3767181,7.35239551 61.3767181,8.7173722 C61.3767181,10.291027 60.6644745,12.7538321 57.178824,12.7538321 C56.5648204,12.7538321 56.0736183,12.7004024 55.6305907,12.4917243 L55.6305907,16.0019524 C55.6305907,16.5785895 55.9253127,16.7106515 56.7121815,16.8406973 L57.2043291,16.9193296 C57.3025692,16.9455404 57.3762497,16.9727593 57.3762497,17.0765943 L57.3762497,17.6270206 L57.3526297,17.6794422 C57.3526297,17.6794422 55.3878184,17.6270206 54.6264547,17.6270206 C53.9387706,17.6270206 52.0967608,17.6794422 52.0967608,17.6794422 L52.0722033,17.6270206 L52.0722033,17.0765943 C52.0722033,16.9717512 52.1213183,16.9455404 52.2195643,16.9193296 L52.7353269,16.8406973 C53.4966916,16.7358542 53.7422926,16.4999572 53.7422926,16.0019524 L53.7403772,7.19613895 L53.7403772,7.19613895 L53.7404105,7.19613895 Z M55.6315403,11.7578225 C56.1227434,11.9685168 56.736747,11.9937195 57.2279491,11.9937195 C58.702502,11.9937195 59.4119128,11.0481153 59.4119128,9.03190154 C59.4119128,6.7777746 58.4540671,6.27976982 57.1051486,6.27976982 C55.9253178,6.27976982 55.6305957,6.51566682 55.6305957,7.19714706 L55.6315403,11.7578225 L55.6315403,11.7578225 L55.6315403,11.7578225 Z M65.6067345,17.6290368 C64.8699304,17.6290368 63.1762251,17.6824665 63.1762251,17.6824665 L63.15072,17.6290368 L63.15072,17.0523997 C63.15072,17.0009863 63.1762251,16.9223539 63.2980801,16.9223539 L63.8639083,16.8689243 C64.6262165,16.7902919 64.847258,16.2660764 64.847258,15.7428689 L64.847258,7.09331205 C64.847258,6.48844794 64.5515924,6.38461293 63.8639083,6.33319948 L63.2980801,6.27876171 C63.15072,6.25456714 63.15072,6.20113748 63.15072,6.1739186 L63.15072,5.57006259 L63.1762251,5.51764103 C63.1762251,5.51764103 65.0909709,5.57006259 65.827775,5.57006259 L69.4381152,5.57006259 C70.1749193,5.57006259 71.9196337,5.51764103 71.9196337,5.51764103 L71.9696963,5.57006259 C71.9933163,6.69712606 72.1652327,7.72136262 72.3380989,8.71636409 L71.7250399,8.82120721 C71.4558229,7.8504003 70.9891803,6.46223716 69.417332,6.46223716 L67.4525207,6.46223716 C66.9858781,6.46223716 66.7402771,6.64571261 66.7402771,7.09028773 L66.7402771,10.8918587 L68.5813423,10.8918587 C69.269971,10.8918587 69.4409469,10.5773294 69.5401326,10.0531138 L69.686548,9.50268744 C69.686548,9.42405511 69.7366106,9.37062545 69.833909,9.37062545 L70.250487,9.37062545 C70.3005496,9.37062545 70.3005496,9.39784433 70.3005496,9.44925778 C70.250487,10.0258949 70.1531886,10.7608048 70.1531886,11.3898635 C70.1531886,12.0441248 70.2514286,12.5955593 70.3005496,13.1984072 L70.250487,13.2518369 L69.833909,13.2518369 C69.7120531,13.2518369 69.6610439,13.1984072 69.6610439,13.1197749 L69.5382434,12.5441458 C69.4400034,12.0189222 69.2189608,11.7306036 68.5785085,11.7306036 L66.7383879,11.7306036 L66.7383879,15.7418608 C66.7383879,16.2388575 67.0066602,16.7368623 67.4506315,16.7368623 L69.7838444,16.7368623 C71.0364111,16.7368623 71.7250399,15.8981174 72.0188163,14.5341488 L72.6318753,14.6127811 L72.1397287,17.6260125 L72.0906036,17.6784341 C72.0906036,17.6784341 70.6415558,17.6260125 69.9047517,17.6260125 L65.6067284,17.6290368 L65.6067284,17.6290368 L65.6067345,17.6290368 Z M74.8432343,16.9223539 L75.4081169,16.8689243 C76.1458657,16.7902919 76.3914677,16.5543949 76.3914677,15.7428689 L76.3914677,7.09331205 C76.3914677,6.4098156 76.217657,6.4098156 75.4081169,6.33319948 L74.869684,6.27876171 C74.771444,6.27876171 74.6958733,6.22634015 74.6958733,6.14770782 L74.6958733,5.57107069 L74.7194933,5.51864914 C74.7194933,5.51864914 76.8817292,5.57107069 77.3247569,5.57107069 C77.7895103,5.57107069 79.9281314,5.51864914 80.5666945,5.51864914 C84.6682367,5.51864914 86.6831127,8.24457008 86.6831127,11.7306036 C86.6831127,16.3184979 83.6367116,17.6794422 80.9114812,17.6794422 C78.9466698,17.6794422 78.0880097,17.6270206 77.3266461,17.6270206 C76.5888974,17.6270206 74.722327,17.6794422 74.722327,17.6794422 L74.6977696,17.6270206 L74.6977696,17.0765943 C74.6958733,17.0009863 74.745947,16.9223539 74.8432414,16.9223539 L74.8432343,16.9223539 Z M80.3210894,16.9223539 C83.0217593,16.9223539 84.5463768,15.8487201 84.5463768,12.1771949 C84.5463768,9.4522821 83.9805496,6.27876171 79.8544468,6.27876171 C78.8966012,6.27876171 78.2825976,6.43602638 78.2825976,7.09331205 L78.2825976,15.7428689 C78.2825976,16.4747545 78.4535745,16.9223539 80.3210894,16.9223539 Z M103.336387,5.51562482 C103.441845,5.62817995 103.441845,6.02211786 103.336387,6.134673 C102.281736,6.19094552 101.982913,6.28473978 101.982913,7.84173058 L101.982913,15.7204789 C101.982913,18.4030008 100.945833,19.3784652 100.189995,20.0725467 C99.4693191,20.7291066 98.9244071,20.8791734 98.1334263,20.8791734 C97.7467266,20.8791734 96.8151048,20.541518 96.8151048,19.8661973 C96.8151048,19.4534986 97.3424354,19.0595606 97.5885143,19.0595606 C98.1334263,19.0595606 98.2037317,19.4534986 98.3795052,19.6973596 C98.5025547,19.8849481 98.7486336,20.035025 98.9947226,20.035025 C99.5747772,20.035025 100.488818,19.5097711 100.488818,16.1331676 L100.488818,7.84173058 C100.488818,6.28473978 100.189995,6.19092536 98.7837964,6.134673 C98.6783282,6.02211786 98.6783282,5.62817995 98.7837964,5.51562482 C99.6626639,5.5343756 100.277891,5.55312639 101.227074,5.55312639 C102.053218,5.55312639 102.47508,5.5343756 103.336387,5.51562482 Z M90.939352,5.51564498 C91.0448191,5.62820011 91.0448191,6.02213803 90.939352,6.13469316 C89.9550102,6.19096568 89.6913479,6.05965976 90.1307847,6.84752552 L92.3455521,11.0120049 C92.5037574,11.3121284 92.5740648,11.368411 92.7322609,11.0495064 L94.8239929,6.84750536 C95.2107027,6.05966985 94.7712589,6.19092536 93.9978494,6.134673 C93.8923812,6.02211786 93.8923812,5.64694082 93.9978494,5.53438568 C94.7009434,5.55313647 95.1931214,5.55313647 95.5974125,5.55313647 C96.0016835,5.55313647 96.5290142,5.55313647 97.0563347,5.53438568 C97.1618028,5.64694082 97.1618028,6.02211786 97.0563347,6.134673 C96.2653539,6.22846726 96.0192649,6.11591213 95.527087,7.05385475 L93.2771639,11.3871618 C92.9256168,12.0812433 92.9783408,11.8936548 92.9783408,12.6440089 L92.9783307,15.3640728 C92.9783307,16.9210636 93.2771538,17.0148881 94.683362,17.0711404 C94.7888201,17.1836855 94.7888201,17.5776234 94.683362,17.6901785 C93.8044844,17.6714277 93.189267,17.6526769 92.240086,17.6526769 C91.2733146,17.6526769 90.6405219,17.6714277 89.7792266,17.6901785 C89.6737595,17.5776234 89.6737595,17.1836855 89.7792266,17.0711404 C91.1854268,17.0148578 91.4842478,16.9210636 91.4842478,15.3640728 L91.4842478,12.7941059 C91.4842478,12.1000244 91.4139394,12.1000244 91.1151184,11.5372588 L88.7948849,7.3915403 C88.0917848,6.11594237 87.8984208,6.19094552 87.1601721,6.13469316 C87.0547543,6.02213803 87.0371336,5.62820011 87.1426007,5.51564498 C87.6699253,5.53439577 88.249989,5.55314655 88.9355097,5.55314655 C89.6386098,5.55314655 90.2362519,5.53439577 90.939352,5.51564498 Z M111.721547,0.896670727 C115.082354,0.896670727 117.627673,3.69218129 117.627673,9.17768387 C117.627673,13.8983862 115.502452,16.7202587 112.685298,16.7202587 C109.719891,16.7202587 106.82861,13.7928979 106.82861,8.72934851 C106.82861,3.19110178 109.472774,0.896670727 111.721547,0.896670727 M120,8.67660436 C120,3.45482253 116.367368,1.95399252e-14 112.042801,1.95399252e-14 C107.619389,1.95399252e-14 104.456273,4.0086462 104.456273,9.17768387 C104.456273,14.3730936 107.940643,17.6169295 112.191063,17.6169295 C116.91103,17.6169295 120,13.9511303 120,8.67660436" id="wikipedia-wordmark-szl" fill="#000000" fill-rule="nonzero"></path>
    </g>
</svg>

<svg xmlns="http://www.w3.org/2000/svg" width="120" height="21"><path fill="#000" fill-rule="nonzero" d="M16.373.26h.786l.186.001h.35l.164.001h.294l.13.001h.302l.068.001h.092l.054.054v.5c0 .138-.073.207-.216.207-.705.035-.85.11-1.108.506-.14.216-.418.681-.706 1.202L14.296 7.67l-.069.153 3.022 6.601.183.054 4.76-12.058c.166-.486.14-.831-.072-1.034-.213-.197-.363-.314-.915-.338l-.447-.025a.252.252 0 0 1-.157-.06.177.177 0 0 1-.074-.146V.314l.068-.052h5.378l.055.052v.502c0 .136-.073.204-.216.204-.705.034-1.227.197-1.565.488-.34.294-.604.698-.794 1.223l-.03.073c-.21.513-1.492 3.645-2.85 6.943l-.255.62c-1.065 2.586-2.137 5.18-2.741 6.614-.574 1.165-1.138 1.058-1.634-.033-.62-1.365-1.91-4.376-2.858-6.602-.35.775-.747 1.645-1.145 2.508l-.235.51a134.895 134.895 0 0 1-1.707 3.598c-.669 1.24-1.22 1.078-1.658.032-1.522-3.832-4.647-10.56-6.117-14.33-.272-.695-.477-1.14-.671-1.317-.195-.174-.599-.28-1.214-.314C.112 1.006 0 .948 0 .853V.328L.055.276h.361L.574.274h.555l.209-.001h1.65l1.41.001H5.332l.143.001h.428l.055.052v.5c0 .138-.082.205-.244.205l-.61.027c-.523.023-.785.19-.785.5 0 .144.055.378.177.693 1.17 3.046 5.217 12.15 5.217 12.15l.148.041 2.608-5.55-.522-1.234-1.793-3.76s-.347-.752-.465-1.002C8.9 1.23 8.918 1.142 8.121 1.03 7.898.999 7.783.969 7.783.85V.324L7.85.272h.497L9.763.27h2.727l.123.043v.525c0 .12-.08.181-.244.181l-.336.052c-.85.07-.712.441-.147 1.642l1.72 3.755 1.903-4.048c.295-.688.26-.897.149-1.061l-.027-.037c-.076-.097-.33-.251-.88-.275l-.216-.026a.248.248 0 0 1-.156-.059.175.175 0 0 1-.074-.147v-.5l.067-.052.823-.003.577-.001h.199Zm10.688 5.31c.663 0 2.554-.052 2.554-.052l.024.052v.577c0 .078-.049.13-.147.13l-.516.054c-.761.078-1.031.289-1.031.814v8.728c0 .577.245.917 1.031.996l.516.053c.074 0 .147.052.147.157v.55l-.024.053s-.61-.017-1.274-.032l-.334-.007a66.31 66.31 0 0 0-.904-.014h-.116c-.688 0-2.604.053-2.604.053l-.049-.053v-.55c0-.105.074-.157.172-.157l.491-.053c.811-.079 1.057-.498 1.057-.996V7.145c0-.576-.296-.735-1.057-.812l-.49-.054c-.099 0-.173-.024-.173-.105V5.57l.025-.052s1.94.052 2.702.052Zm8.132 10.303c0 .577.32.865 1.031.996l.27.053c.074.026.148.052.148.157v.55l-.025.053s-1.547-.053-2.284-.053c-.688 0-2.701.053-2.701.053l-.05-.053v-.55c0-.105.074-.157.172-.157l.492-.053c.736-.079 1.056-.498 1.056-.996V7.145c0-.576-.27-.735-1.056-.812l-.492-.054c-.098 0-.172-.024-.172-.105V5.57l.025-.052s2.014.052 2.775.052c.689 0 2.235-.052 2.235-.052l.025.052v.577c0 .078-.05.105-.148.13l-.27.054c-.761.156-1.031.289-1.031.814v3.958c.81 0 1.277-.445 2.358-1.678.982-1.154 1.743-2.122 1.743-2.621 0-.21-.22-.446-.712-.525-.098-.025-.147-.053-.147-.131v-.604l.024-.025s1.99.052 2.702.052c.638 0 1.72-.052 1.72-.052l.073.025v.604c0 .078-.074.13-.197.13-.958.08-1.62.132-2.505 1.206l-2.112 2.594c-.418.473-.565.76-.565.971 0 .157.098.287.221.445l3.709 4.77c.294.366.884.524 1.375.628l.123.025c.074.027.172.079.172.158v.55l-.074.026s-1.302-.026-1.99-.026c-.613 0-1.497.026-1.497.026l-.025-.026v-.315c0-.341-.025-.628-.368-1.047l-2.727-3.618c-.368-.525-.76-.654-1.301-.654v3.882Zm13.24 0c0 .577.246.917 1.032.996l.516.053c.074 0 .147.052.147.157v.55l-.024.053s-1.867-.053-2.628-.053c-.688 0-2.604.053-2.604.053l-.049-.053v-.55c0-.105.074-.157.172-.157l.491-.053c.81-.079 1.056-.498 1.056-.996V7.145c0-.576-.294-.735-1.056-.812l-.49-.054c-.1 0-.173-.024-.173-.105V5.57l.025-.052s1.94.052 2.701.052c.663 0 2.555-.052 2.555-.052l.024.052v.577c0 .078-.049.13-.147.13l-.516.054c-.761.078-1.031.289-1.031.814v8.728Zm5.307-8.677c0-.812-.319-.839-1.473-.917-.148 0-.172-.078-.172-.131v-.603l.049-.026c.368 0 1.817.052 2.53.052.687 0 1.67-.052 2.579-.052 3.485 0 4.124 1.833 4.124 3.198 0 1.574-.713 4.037-4.198 4.037-.614 0-1.105-.054-1.548-.262v3.51c0 .577.294.709 1.081.839l.492.078c.099.027.172.054.172.158v.55l-.023.052s-1.965-.052-2.727-.052c-.687 0-2.53.052-2.53.052l-.024-.052v-.55c0-.105.05-.131.148-.158l.515-.078c.762-.105 1.007-.341 1.007-.839l-.002-8.806Zm1.892 4.562c.49.21 1.105.236 1.596.236 1.475 0 2.184-.946 2.184-2.962 0-2.254-.958-2.752-2.307-2.752-1.18 0-1.474.236-1.474.917v4.56Zm9.975 5.871c-.737 0-2.43.053-2.43.053l-.026-.053v-.577c0-.051.025-.13.147-.13l.566-.053c.762-.079.983-.603.983-1.126v-8.65c0-.605-.295-.708-.983-.76l-.566-.054c-.147-.024-.147-.078-.147-.105V5.57l.025-.052s1.915.052 2.652.052h3.61c.737 0 2.482-.052 2.482-.052l.05.052c.023 1.127.195 2.151.368 3.146l-.613.105c-.27-.97-.736-2.359-2.308-2.359h-1.964c-.467 0-.713.184-.713.628v3.802h1.841c.689 0 .86-.315.96-.839l.146-.55c0-.079.05-.132.147-.132h.416c.05 0 .05.027.05.078-.05.577-.147 1.312-.147 1.94 0 .655.098 1.207.148 1.81l-.05.053h-.417c-.122 0-.173-.054-.173-.132l-.123-.576c-.098-.525-.319-.813-.96-.813h-1.84v4.01c0 .498.269.996.713.996h2.333c1.252 0 1.941-.839 2.235-2.203l.613.079-.492 3.013-.05.052s-1.448-.052-2.185-.052l-4.298.003Zm9.236-.707.565-.053c.738-.079.983-.315.983-1.126v-8.65c0-.683-.173-.683-.983-.76l-.538-.054c-.099 0-.174-.053-.174-.131V5.57l.023-.052s2.163.052 2.606.052c.465 0 2.603-.052 3.242-.052 4.101 0 6.116 2.726 6.116 6.212 0 4.587-3.046 5.948-5.772 5.948-1.964 0-2.823-.052-3.584-.052-.738 0-2.605.052-2.605.052l-.024-.052v-.55c-.002-.076.048-.155.145-.155Zm5.478 0c2.7 0 4.225-1.073 4.225-4.745 0-2.725-.565-5.898-4.692-5.898-.957 0-1.571.157-1.571.814v8.65c0 .732.17 1.18 2.038 1.18Zm23.015-11.406c.106.112.106.506 0 .619-1.054.056-1.353.15-1.353 1.707v7.878c0 2.683-1.037 3.658-1.793 4.353-.72.656-1.266.806-2.057.806-.386 0-1.318-.337-1.318-1.013 0-.413.527-.806.774-.806.544 0 .615.393.79.637.124.188.37.338.616.338.58 0 1.494-.525 1.494-3.902V7.842c0-1.557-.299-1.651-1.705-1.707-.106-.113-.106-.507 0-.62.879.02 1.494.038 2.443.038.826 0 1.248-.019 2.11-.037Zm-12.397 0c.106.112.106.506 0 .619-.984.056-1.248-.075-.808.713l2.215 4.164c.158.3.228.356.386.038l2.092-4.202c.387-.788-.053-.657-.826-.713-.106-.113-.106-.488 0-.6.703.018 1.195.018 1.6.018.404 0 .931 0 1.458-.019.106.113.106.488 0 .6-.79.094-1.037-.018-1.529.92l-2.25 4.333c-.351.694-.299.507-.299 1.257v2.72c0 1.557.3 1.65 1.705 1.707.106.113.106.507 0 .62-.879-.02-1.494-.038-2.443-.038-.967 0-1.6.018-2.46.037-.106-.112-.106-.506 0-.619 1.405-.056 1.704-.15 1.704-1.707v-2.57c0-.694-.07-.694-.369-1.257l-2.32-4.145c-.703-1.276-.897-1.201-1.635-1.257-.105-.113-.123-.507-.017-.62.527.02 1.107.038 1.793.038.703 0 1.3-.019 2.003-.037Zm20.783-4.62c3.36 0 5.906 2.796 5.906 8.282 0 4.72-2.126 7.542-4.943 7.542-2.965 0-5.856-2.927-5.856-7.99 0-5.539 2.644-7.833 4.893-7.833M120 8.677C120 3.455 116.367 0 112.043 0c-4.424 0-7.587 4.009-7.587 9.178 0 5.195 3.485 8.439 7.735 8.439 4.72 0 7.809-3.666 7.809-8.94"/></svg>
